X: 380
T:Pat Burke's
T:The Jolly Corkonian
T:The Chapel Bell
T:The Hills of Glenorchy
M:6/8
L:1/8
R:Jig
N:from Mary Logan during a session
Z:Kevin Gow
K:Em
BAB E2E|BAB d2B|BAF D3|~F3 FGA|
BAB E2E|BAB def|edB AFA BEE E3:|!
|:e2e efe|def afd|efe dBA|~B3 dBA|
Bee efe|def afd|edB AFA|BEE E3:|

